X:351
T: WAS IST DENN WOHL EINS SEEMANNS LEBEN
N: E1507
O: Europa, Mitteleuropa, Deutschland, Helgoland
R: Staende -, Seemanns - Lied
M: 3/4
L: 1/8
K: G
ded | d3BcA | AGG
GBG | GFFAdc | B2z
BdB | BAAcec | cBB
BdB | A3AAc | B2z
BBc | d3cBc | dgg
dge | d3BcA | G2z

